images/tag.svg

<svg xmlns="http://www.w3.org/2000/svg" width="116.115" height="116.015" viewBox="0 0 116.115 116.015">
  <g id="tag" transform="translate(-6.485 -6.485)">
    <g id="Group_1" data-name="Group 1">
      <path id="Path_1" data-name="Path 1" d="M121.3,66.4,62.6,7.7a4.35,4.35,0,0,0-3.4-1.2l-44,5a4.151,4.151,0,0,0-3.7,3.7l-5,44a4.228,4.228,0,0,0,1.2,3.4l58.7,58.7a4.234,4.234,0,0,0,3,1.2,4.41,4.41,0,0,0,3-1.2l49-49a4.07,4.07,0,0,0,1.2-3,4.8,4.8,0,0,0-1.3-2.9ZM15.1,58.1l4.4-38.6,38.6-4.4L98,55,55,98,15.1,58.1Zm54.3,54.3L61,104l43-43,8.4,8.4Z" fill="#d3ae29"/>
      <path id="Path_2" data-name="Path 2" d="M54.7,32.2a15.885,15.885,0,0,0-11.3-4.7A15.95,15.95,0,0,0,32.1,54.7a15.885,15.885,0,0,0,11.3,4.7,16.059,16.059,0,0,0,11.3-4.7,15.814,15.814,0,0,0,0-22.5ZM48.8,48.8a7.865,7.865,0,0,1-10.7,0,7.667,7.667,0,0,1,0-10.7,7.5,7.5,0,0,1,12.8,5.3A7.23,7.23,0,0,1,48.8,48.8Z" fill="#d3ae29"/>
    </g>
  </g>
</svg>

<?xml version="1.0" encoding="utf-8"?>
<svg xmlns="http://www.w3.org/2000/svg" xmlns:xlink="http://www.w3.org/1999/xlink" version="1.1" viewBox="0 0 129 129" enable-background="new 0 0 129 129" width="512px" height="512px">
  <g>
    <g>
      <path d="m121.3,66.4l-58.7-58.7c-0.9-0.9-2.2-1.3-3.4-1.2l-44,5c-1.9,0.2-3.5,1.7-3.7,3.7l-5,44c-0.1,1.3 0.3,2.5 1.2,3.4l58.7,58.7c0.8,0.8 1.9,1.2 3,1.2 1.1,0 2.1-0.4 3-1.2l49-49c0.8-0.8 1.2-1.8 1.2-3-0.1-1-0.5-2.1-1.3-2.9zm-106.2-8.3l4.4-38.6 38.6-4.4 39.9,39.9-43,43-39.9-39.9zm54.3,54.3l-8.4-8.4 43-43 8.4,8.4-43,43z" fill="#fd784f"/>
      <path d="m54.7,32.2c-3-3-7-4.7-11.3-4.7s-8.2,1.7-11.3,4.7c-6.2,6.2-6.2,16.3 0,22.5 3,3 7,4.7 11.3,4.7s8.2-1.7 11.3-4.7c3-3 4.7-7 4.7-11.3-7.10543e-15-4.2-1.7-8.2-4.7-11.2zm-5.9,16.6c-2.8,2.8-7.8,2.8-10.7,0-2.9-2.9-2.9-7.7 0-10.7 1.4-1.4 3.3-2.2 5.3-2.2s3.9,0.8 5.3,2.2c1.4,1.4 2.2,3.3 2.2,5.3 0.1,2.1-0.7,3.9-2.1,5.4z" fill="#fd784f"/>
    </g>
  </g>
</svg>
